X:687
%%etbk:tnset id:425,pos:1,rep:3x,ant:
%%etbk:wsite https://thesession.org/tunes/1828
%%etbk:pldat 2016-07-05T17:22,2015-12-13T15:24,2015-08-15T16:55,2015-07-17T16:12,2015-06-01T18:04,2015-05-20T17:11,2015-05-06T18:13,2015-04-19T15:25,2015-04-12T14:23,2015-04-11T11:48
T: Neil Gow’s Wife
Z: Piano Box Version by Martin Fleischmann
H: Created 2015-04-19 /  Last Modified 2015-05-20
M: 4/4
L: 1/8
R: highland fling
K: Ador
ae>d |:\
"am"!3!c<AA>c "em"!2!B<GG>B | "am"!3!c<AA>B !3!c>de>d |!3!c<AA>c "em"!2!B<GG>B | (3cde d>B "am"A> !1!E!3!A>!4!B :|
"C"!2!c2 !4!e>c !5!g>ce>c | "G"!1!G2 !2!B>G d>GB>G |"C"!3!c2 !1!c>e g>ed>g | "am"!1!e!3!aaa !1!e!3!aaa |
"G"!4!g>f (3efg "D"!3!f>e (3def | "am"!2!e>d!2!B>c  "E"!4!d>B!1!^G>B |"am"!1!A2 (3Bcd (3efg f>d | "em"!3!c>A B>G "am"A>!5!=fe>d |]


